flaticon/interaction/smartphone-2.svg

<svg xmlns="http://www.w3.org/2000/svg" width="32" height="32" viewBox="0 0 24 24">
    <path d="M 16.800781 13.601562 C 16.386719 13.601562 15.984375 13.652344 15.601562 13.746094 L 15.601562 1.761719 C 15.601562 0.789062 14.808594 0 13.839844 0 L 3.761719 0 C 2.789062 0 2 0.789062 2 1.761719 L 2 22.238281 C 2 23.210938 2.789062 24 3.761719 24 L 13.835938 24 C 14.226562 24 14.59375 23.867188 14.898438 23.636719 C 15.488281 23.867188 16.128906 24 16.800781 24 C 19.667969 24 22 21.667969 22 18.800781 C 22 15.933594 19.667969 13.601562 16.800781 13.601562 Z M 14.503906 14.140625 C 14.480469 14.152344 14.457031 14.164062 14.429688 14.175781 C 14.34375 14.222656 14.257812 14.269531 14.171875 14.320312 C 14.128906 14.34375 14.085938 14.371094 14.042969 14.398438 C 13.964844 14.449219 13.890625 14.496094 13.816406 14.550781 C 13.765625 14.582031 13.722656 14.621094 13.675781 14.65625 C 13.558594 14.742188 13.445312 14.835938 13.339844 14.929688 C 13.289062 14.976562 13.234375 15.023438 13.1875 15.070312 C 13.128906 15.125 13.074219 15.183594 13.019531 15.242188 C 12.972656 15.289062 12.929688 15.339844 12.882812 15.390625 C 12.832031 15.453125 12.777344 15.511719 12.730469 15.574219 C 12.6875 15.628906 12.648438 15.679688 12.609375 15.734375 C 12.527344 15.847656 12.449219 15.964844 12.375 16.085938 C 12.339844 16.140625 12.304688 16.195312 12.269531 16.253906 C 12.230469 16.324219 12.195312 16.398438 12.15625 16.472656 C 12.128906 16.53125 12.097656 16.589844 12.070312 16.652344 C 12.039062 16.726562 12.003906 16.796875 11.976562 16.871094 C 11.945312 16.945312 11.917969 17.019531 11.894531 17.09375 C 11.863281 17.179688 11.835938 17.269531 11.808594 17.359375 C 11.777344 17.46875 11.746094 17.578125 11.722656 17.691406 C 11.710938 17.75 11.699219 17.808594 11.691406 17.867188 C 11.671875 17.96875 11.65625 18.070312 11.640625 18.175781 C 11.636719 18.226562 11.628906 18.277344 11.625 18.328125 C 11.621094 18.351562 11.617188 18.375 11.617188 18.402344 L 2.800781 18.402344 L 2.800781 3.199219 L 14.800781 3.199219 L 14.800781 14 C 14.699219 14.042969 14.601562 14.09375 14.503906 14.140625 Z M 3.761719 0.800781 L 13.835938 0.800781 C 14.367188 0.800781 14.800781 1.230469 14.800781 1.761719 L 14.800781 2.398438 L 2.800781 2.398438 L 2.800781 1.761719 C 2.800781 1.230469 3.230469 0.800781 3.761719 0.800781 Z M 14.011719 23.183594 C 13.953125 23.195312 13.894531 23.199219 13.839844 23.199219 L 3.761719 23.199219 C 3.230469 23.199219 2.800781 22.769531 2.800781 22.238281 L 2.800781 19.199219 L 11.621094 19.199219 C 11.625 19.273438 11.632812 19.34375 11.640625 19.414062 C 11.644531 19.464844 11.65625 19.515625 11.664062 19.570312 C 11.6875 19.726562 11.714844 19.878906 11.753906 20.03125 C 11.765625 20.078125 11.777344 20.125 11.789062 20.171875 C 11.835938 20.34375 11.890625 20.511719 11.957031 20.675781 C 11.964844 20.695312 11.972656 20.71875 11.980469 20.738281 C 12.132812 21.125 12.335938 21.484375 12.574219 21.816406 C 12.59375 21.847656 12.617188 21.875 12.640625 21.90625 C 12.742188 22.039062 12.847656 22.167969 12.960938 22.292969 C 12.988281 22.324219 13.011719 22.355469 13.039062 22.382812 C 13.324219 22.679688 13.640625 22.941406 13.984375 23.164062 C 13.996094 23.171875 14.003906 23.179688 14.011719 23.183594 Z M 16.800781 23.199219 C 16.203125 23.199219 15.632812 23.078125 15.113281 22.863281 L 15.023438 22.820312 C 14.988281 22.808594 14.957031 22.789062 14.925781 22.773438 C 14.785156 22.707031 14.648438 22.632812 14.519531 22.554688 C 14.480469 22.53125 14.445312 22.511719 14.410156 22.488281 C 14.347656 22.449219 14.292969 22.40625 14.234375 22.367188 C 14.191406 22.335938 14.148438 22.304688 14.105469 22.269531 C 14.050781 22.226562 13.996094 22.1875 13.945312 22.140625 C 13.902344 22.101562 13.855469 22.0625 13.8125 22.019531 C 13.730469 21.945312 13.652344 21.867188 13.578125 21.785156 C 13.539062 21.742188 13.5 21.699219 13.460938 21.65625 C 13.414062 21.605469 13.371094 21.550781 13.332031 21.496094 C 13.296875 21.453125 13.265625 21.410156 13.238281 21.371094 C 13.195312 21.3125 13.152344 21.253906 13.113281 21.195312 C 13.089844 21.15625 13.066406 21.113281 13.039062 21.074219 C 12.976562 20.964844 12.914062 20.851562 12.855469 20.738281 C 12.832031 20.691406 12.808594 20.644531 12.789062 20.597656 C 12.761719 20.535156 12.734375 20.472656 12.707031 20.40625 C 12.6875 20.351562 12.667969 20.296875 12.648438 20.238281 C 12.625 20.179688 12.605469 20.121094 12.585938 20.058594 C 12.554688 19.953125 12.523438 19.839844 12.5 19.726562 C 12.492188 19.679688 12.484375 19.636719 12.476562 19.589844 C 12.460938 19.5 12.445312 19.414062 12.433594 19.324219 C 12.429688 19.28125 12.425781 19.238281 12.421875 19.195312 C 12.410156 19.066406 12.398438 18.933594 12.398438 18.800781 C 12.398438 18.664062 12.410156 18.53125 12.421875 18.398438 C 12.425781 18.351562 12.429688 18.304688 12.4375 18.257812 C 12.449219 18.171875 12.460938 18.089844 12.476562 18.007812 C 12.484375 17.953125 12.496094 17.894531 12.507812 17.839844 C 12.523438 17.769531 12.542969 17.699219 12.5625 17.628906 C 12.578125 17.570312 12.59375 17.511719 12.613281 17.453125 C 12.648438 17.347656 12.6875 17.242188 12.726562 17.136719 C 12.757812 17.066406 12.789062 17 12.824219 16.929688 C 12.84375 16.886719 12.863281 16.839844 12.886719 16.796875 C 12.921875 16.730469 12.960938 16.664062 12.996094 16.597656 C 13.023438 16.554688 13.046875 16.515625 13.070312 16.472656 C 13.113281 16.410156 13.15625 16.34375 13.199219 16.277344 C 13.222656 16.246094 13.246094 16.214844 13.269531 16.183594 C 13.363281 16.058594 13.464844 15.9375 13.570312 15.820312 C 13.59375 15.796875 13.617188 15.769531 13.644531 15.742188 C 13.699219 15.683594 13.753906 15.632812 13.8125 15.578125 C 13.847656 15.546875 13.878906 15.515625 13.914062 15.484375 C 13.976562 15.433594 14.035156 15.382812 14.097656 15.332031 C 14.132812 15.308594 14.164062 15.285156 14.195312 15.261719 C 14.265625 15.210938 14.335938 15.15625 14.410156 15.109375 C 14.414062 15.109375 14.417969 15.105469 14.425781 15.101562 C 14.699219 14.925781 14.996094 14.777344 15.308594 14.664062 C 15.335938 14.65625 15.363281 14.644531 15.390625 14.636719 L 15.507812 14.59375 C 15.917969 14.46875 16.351562 14.398438 16.800781 14.398438 C 19.226562 14.398438 21.199219 16.375 21.199219 18.800781 C 21.199219 21.226562 19.226562 23.199219 16.800781 23.199219 Z M 16.800781 23.199219"/>
    <path d="M18.78125 16.820312C18.625 16.664062 18.371094 16.664062 18.214844 16.820312L16.800781 18.234375 15.386719 16.820312C15.230469 16.664062 14.976562 16.664062 14.820312 16.820312 14.664062 16.976562 14.664062 17.230469 14.820312 17.386719L16.234375 18.800781 14.820312 20.214844C14.664062 20.371094 14.664062 20.625 14.820312 20.78125 14.898438 20.859375 15 20.898438 15.101562 20.898438 15.207031 20.898438 15.308594 20.859375 15.386719 20.78125L16.800781 19.367188 18.214844 20.78125C18.292969 20.859375 18.394531 20.898438 18.496094 20.898438 18.597656 20.898438 18.703125 20.859375 18.78125 20.78125 18.9375 20.625 18.9375 20.371094 18.78125 20.214844L17.367188 18.800781 18.78125 17.386719C18.9375 17.230469 18.9375 16.976562 18.78125 16.820312zM8.800781 19.601562C7.917969 19.601562 7.199219 20.316406 7.199219 21.199219 7.199219 22.082031 7.917969 22.800781 8.800781 22.800781 9.683594 22.800781 10.398438 22.082031 10.398438 21.199219 10.398438 20.316406 9.683594 19.601562 8.800781 19.601562zM8.800781 22C8.359375 22 8 21.640625 8 21.199219 8 20.757812 8.359375 20.398438 8.800781 20.398438 9.242188 20.398438 9.601562 20.757812 9.601562 21.199219 9.601562 21.640625 9.242188 22 8.800781 22zM7.199219 2L8.800781 2C9.019531 2 9.199219 1.820312 9.199219 1.601562 9.199219 1.378906 9.019531 1.199219 8.800781 1.199219L7.199219 1.199219C6.980469 1.199219 6.800781 1.378906 6.800781 1.601562 6.800781 1.820312 6.980469 2 7.199219 2zM10 2L10.398438 2C10.621094 2 10.800781 1.820312 10.800781 1.601562 10.800781 1.378906 10.621094 1.199219 10.398438 1.199219L10 1.199219C9.777344 1.199219 9.601562 1.378906 9.601562 1.601562 9.601562 1.820312 9.777344 2 10 2zM10 2"/>
</svg>

<svg xmlns="http://www.w3.org/2000/svg" width="32" height="32" viewBox="0 0 24 24">
    <path d="M16.8 13.602c-.413 0-.816.05-1.198.144V1.762C15.602.789 14.809 0 13.84 0H3.762C2.789 0 2 .79 2 1.762v20.476C2 23.211 2.79 24 3.762 24h10.074c.39 0 .758-.133 1.062-.363.59.23 1.23.363 1.903.363C19.668 24 22 21.668 22 18.8c0-2.866-2.332-5.198-5.2-5.198zm-2.296.539a1.343 1.343 0 0 1-.074.035c-.086.047-.172.094-.258.144-.043.024-.086.051-.129.078-.078.051-.152.098-.227.153-.05.031-.093.07-.14.105a4.65 4.65 0 0 0-.336.274c-.05.047-.106.093-.152.14-.06.055-.114.114-.168.172-.047.047-.09.098-.137.149-.051.062-.106.12-.153.183a5.495 5.495 0 0 0-.355.512c-.035.055-.07.11-.105.168-.04.07-.075.144-.114.219-.027.058-.058.117-.086.18-.03.074-.066.144-.093.218a2.561 2.561 0 0 0-.082.223c-.032.086-.06.176-.086.265-.032.11-.063.22-.086.332-.012.059-.024.118-.032.176-.02.102-.035.203-.05.309-.004.05-.012.101-.016.152a.433.433 0 0 0-.008.074H2.801V3.2h12V14c-.102.043-.2.094-.297.14zM3.762.8h10.074c.531 0 .965.43.965.96v.637h-12v-.636c0-.532.43-.961.96-.961zm10.25 22.383a.88.88 0 0 1-.172.015H3.762a.96.96 0 0 1-.961-.96v-3.04h8.82c.004.074.012.145.02.215.004.05.015.102.023.156a4.574 4.574 0 0 0 .125.602c.047.172.102.34.168.504l.023.062c.153.387.356.746.594 1.078.02.032.043.059.067.09.101.133.207.262.32.387.027.031.05.062.078.09.285.297.602.558.945.781.012.008.02.016.028.02zm2.789.015a4.409 4.409 0 0 1-1.688-.336l-.09-.043c-.035-.011-.066-.03-.097-.047a4.474 4.474 0 0 1-.406-.218c-.04-.024-.075-.043-.11-.067-.062-.039-.117-.082-.176-.12a2.8 2.8 0 0 1-.129-.098c-.054-.043-.109-.082-.16-.13-.043-.038-.09-.078-.133-.12a3.317 3.317 0 0 1-.234-.235l-.117-.129a1.652 1.652 0 0 1-.129-.16 4.872 4.872 0 0 1-.219-.3c-.023-.04-.047-.083-.074-.122a9.216 9.216 0 0 1-.184-.336 2.283 2.283 0 0 1-.066-.14c-.027-.063-.055-.125-.082-.192l-.059-.168a2.426 2.426 0 0 1-.062-.18 4.12 4.12 0 0 1-.086-.331l-.023-.137c-.016-.09-.032-.176-.043-.266l-.012-.129a4.367 4.367 0 0 1-.024-.394 4.542 4.542 0 0 1 .04-.543c.011-.086.023-.168.039-.25.007-.055.02-.113.03-.168.016-.07.036-.14.056-.211.015-.059.03-.117.05-.176.035-.105.075-.21.114-.316.03-.07.062-.137.097-.207.02-.043.04-.09.063-.133.035-.067.074-.133.11-.2.026-.042.05-.081.073-.124.043-.063.086-.13.13-.196l.07-.093c.093-.125.195-.247.3-.364.024-.023.047-.05.075-.078.054-.058.109-.11.168-.164.035-.031.066-.062.101-.094.063-.05.121-.101.184-.152.035-.023.066-.047.097-.07.07-.051.14-.106.215-.153.004 0 .008-.004.016-.007.273-.176.57-.325.883-.438.027-.008.054-.02.082-.027l.117-.043c.41-.125.844-.196 1.293-.196a4.406 4.406 0 0 1 4.398 4.403 4.403 4.403 0 0 1-4.398 4.398zm0 0"/>
    <path d="M18.781 16.82a.4.4 0 0 0-.566 0L16.8 18.234l-1.414-1.414a.4.4 0 0 0-.567.567l1.414 1.414-1.414 1.414a.4.4 0 0 0 .567.566l1.414-1.414 1.414 1.414c.078.078.18.117.281.117a.4.4 0 0 0 .285-.684l-1.414-1.413 1.414-1.414a.4.4 0 0 0 0-.567zm0 0M8.8 19.602a1.6 1.6 0 0 0-1.6 1.597c0 .883.718 1.602 1.6 1.602a1.6 1.6 0 0 0 0-3.2zM8.8 22a.802.802 0 0 1 0-1.602.802.802 0 0 1 0 1.602zm0 0M7.2 2h1.6a.4.4 0 0 0 0-.8H7.2a.401.401 0 0 0 0 .8zm0 0M10 2h.398a.401.401 0 1 0 0-.8H10a.398.398 0 0 0-.398.402c0 .218.175.398.398.398zm0 0"/>
</svg>
